X:14442
T:Ron's Jig
R:reel
C:Paul S. Cranford SOCAN
O:20th Century Cape Breton
D:The Lighthouse, Cranford Publications
B:The Lighthouse Collection, ISBN 0-9691181-5-5
N:http://www.cranfordpub.com
H:Composed for Ron Caplan editor of CB Magazine (was that a jig or a reel)
L:1/8
Q:333
M:C|
K:D
G|FAAF ABAF|d2 cA BEEA|GBEA GABd|e2 dB cAAG|
FAAF ABAF|d2 cA BEEg|(3(fga) ec dBAF|EA,CE FDD:|!
|:g|(3(fga) ec dBAe|dABd e2eg|f2 ec dBAe|dBAF FEEe|(3(fga) ec dBAe|!
dABd e2eg|[1faef deBg|dBAF FEE:|2faef deBA|BdAB FAE|]!
